images_sukapura_svg/cmd/sc_insertfootnote.svg

<svg viewBox="0 0 16 16" xmlns="http://www.w3.org/2000/svg"><path d="m3 1v14h7.304688 2.695312v-.75-1.955078-1.769531-1.0761722l-.408203.3261718a1.0001 1.0001 0 0 1 -.013672.0117188c-.076122.0586703-.168592.1113626-.269531.1582031l-1.951172-1.6328125a1.0001 1.0001 0 0 1 -.248047-.3125 1.0001 1.0001 0 0 1 .248047-.3125l1.951172-1.6328125c.10094.0468404.193409.0995328.269531.1582031a1.0001 1.0001 0 0 1 .013672.0117188l.408203.3261718v-1.0761718-1.7695313-1.9550781-.75h-2.695312z" fill="#fff"/><path d="m3 0c-.1070341 0-.2047472.02609895-.2988281.06054688-.0661904.02094427-.1261843.04656713-.1855469.08007812-.0007459.00042212-.001208.00152979-.0019531.00195312-.3021531.17166833-.5136719.48370594-.5136719.85742188v14c0 .554.446 1 1 1h2 1.0292969 2.9433593 2.0273438 2c.180284 0 .340567-.059764.486328-.142578a1.0001 1.0001 0 0 1 -.486328-.857422h-10v-14h6 2.363281 1.636719v1.6367188 1.3632812 1 .4746094l.287109-.2402344a1.0001 1.0001 0 0 1 .642579-.234375h.070312v-.5-.8632812-2.6367188c0-.554-.446-1-1-1h-2-.636719-.3925779-.4707031z" fill="#98989d"/><path d="m14 14.25v-6.8792876l-2.032827 1.6234428c-.118128.091047-.233794.1229138-.347001.0956-.108284-.0318679-.184574-.0773892-.228873-.1365709l-.391299-.4984823 2.929733-2.454702h1.070267v8.25.75h-1z" fill="#0a84ff"/></svg>

<?xml version="1.0" encoding="UTF-8" standalone="no"?>
<svg
   xmlns:dc="http://purl.org/dc/elements/1.1/"
   xmlns:cc="http://creativecommons.org/ns#"
   xmlns:rdf="http://www.w3.org/1999/02/22-rdf-syntax-ns#"
   xmlns:svg="http://www.w3.org/2000/svg"
   xmlns="http://www.w3.org/2000/svg"
   xmlns:sodipodi="http://sodipodi.sourceforge.net/DTD/sodipodi-0.dtd"
   xmlns:inkscape="http://www.inkscape.org/namespaces/inkscape"
   viewBox="0 0 16 16"
   version="1.1"
   id="svg8"
   sodipodi:docname="sc_insertfootnote.svg"
   inkscape:version="0.92.3 (unknown)">
  <metadata
     id="metadata14">
    <rdf:RDF>
      <cc:Work
         rdf:about="">
        <dc:format>image/svg+xml</dc:format>
        <dc:type
           rdf:resource="http://purl.org/dc/dcmitype/StillImage" />
      </cc:Work>
    </rdf:RDF>
  </metadata>
  <defs
     id="defs12" />
  <sodipodi:namedview
     pagecolor="#ffffff"
     bordercolor="#666666"
     borderopacity="1"
     objecttolerance="10"
     gridtolerance="10"
     guidetolerance="10"
     inkscape:pageopacity="0"
     inkscape:pageshadow="2"
     inkscape:window-width="1366"
     inkscape:window-height="706"
     id="namedview10"
     showgrid="true"
     inkscape:zoom="20.85965"
     inkscape:cx="0.99610271"
     inkscape:cy="5.4721819"
     inkscape:window-x="0"
     inkscape:window-y="0"
     inkscape:window-maximized="1"
     inkscape:current-layer="svg8">
    <inkscape:grid
       type="xygrid"
       id="grid824" />
  </sodipodi:namedview>
  <path
     style="fill:#ffffff"
     d="M 3 1 L 3 15 L 10.304688 15 L 13 15 L 13 14.25 L 13 12.294922 L 13 10.525391 L 13 9.4492188 L 12.591797 9.7753906 A 1.0001 1.0001 0 0 1 12.578125 9.7871094 C 12.502003 9.8457797 12.409533 9.898472 12.308594 9.9453125 L 10.357422 8.3125 A 1.0001 1.0001 0 0 1 10.109375 8 A 1.0001 1.0001 0 0 1 10.357422 7.6875 L 12.308594 6.0546875 C 12.409534 6.1015279 12.502003 6.1542203 12.578125 6.2128906 A 1.0001 1.0001 0 0 1 12.591797 6.2246094 L 13 6.5507812 L 13 5.4746094 L 13 3.7050781 L 13 1.75 L 13 1 L 10.304688 1 L 3 1 z "
     id="path821" />
  <path
     d="M 3 0 C 2.8929659 0 2.7952528 0.026098954 2.7011719 0.060546875 C 2.6349815 0.081491149 2.5749876 0.10711401 2.515625 0.140625 C 2.5148791 0.14104712 2.514417 0.14215479 2.5136719 0.14257812 C 2.2115188 0.31424645 2 0.62628406 2 1 L 2 15 C 2 15.554 2.446 16 3 16 L 5 16 L 6.0292969 16 L 8.9726562 16 L 11 16 L 13 16 C 13.180284 16 13.340567 15.940236 13.486328 15.857422 A 1.0001 1.0001 0 0 1 13 15 L 3 15 L 3 1 L 9 1 L 11.363281 1 L 13 1 L 13 2.6367188 L 13 4 L 13 5 L 13 5.4746094 L 13.287109 5.234375 A 1.0001 1.0001 0 0 1 13.929688 5 L 14 5 L 14 4.5 L 14 3.6367188 L 14 1 C 14 0.446 13.554 0 13 0 L 11 0 L 10.363281 0 L 9.9707031 0 L 9.5 0 L 3 0 z "
     id="path4"
     style="fill:#98989d;fill-opacity:1" />
  <path
     d="m14 14.25v-6.8792876l-2.032827 1.6234428c-.118128.091047-.233794.1229138-.347001.0956-.108284-.0318679-.184574-.0773892-.228873-.1365709l-.391299-.4984823 2.929733-2.454702h1.070267v8.25.75h-1z"
     fill="#4d82b8"
     id="path6"
     style="fill:#0a84ff;fill-opacity:1" />
</svg>
